resources/icons/16px/microphone.svg

<svg width="16" height="16" viewBox="0 0 16 16" fill="none" xmlns="http://www.w3.org/2000/svg">
<path fill-rule="evenodd" clip-rule="evenodd" d="M8 0C6.34315 0 5 1.34315 5 3V7C5 8.65685 6.34315 10 8 10C9.65685 10 11 8.65685 11 7V3C11 1.34315 9.65685 0 8 0ZM3 5C3.55228 5 4 5.44772 4 6V8C4 9.65685 5.34315 11 7 11H9C10.6569 11 12 9.65685 12 8V6C12 5.44772 12.4477 5 13 5C13.5523 5 14 5.44772 14 6V8C14 10.7614 11.7614 13 9 13L9 14H10C10.5523 14 11 14.4477 11 15C11 15.5523 10.5523 16 10 16H6C5.44772 16 5 15.5523 5 15C5 14.4477 5.44772 14 6 14H7L7 13C4.23858 13 2 10.7614 2 8V6C2 5.44772 2.44772 5 3 5Z" fill="#000000"/>
</svg>

<svg xmlns="http://www.w3.org/2000/svg" viewBox="0 0 16 16">
  <path d="M8 0a3 3 0 0 0-3 3v4a3 3 0 0 0 6 0V3a3 3 0 0 0-3-3M3 5a1 1 0 0 1 1 1v2a3 3 0 0 0 3 3h2a3 3 0 0 0 3-3V6a1 1 0 1 1 2 0v2a5 5 0 0 1-5 5v1h1a1 1 0 1 1 0 2H6a1 1 0 1 1 0-2h1v-1a5 5 0 0 1-5-5V6a1 1 0 0 1 1-1"/>
</svg>
